img/service/iconAi.svg

<svg height="58" viewBox="0 0 58 58" width="58" xmlns="http://www.w3.org/2000/svg" xmlns:xlink="http://www.w3.org/1999/xlink"><mask id="a" fill="#fff"><path d="m.0336 0h23.9364638v57.9999773h-23.9364638z" fill="#fff" fill-rule="evenodd"/></mask><mask id="b" fill="#fff"><path d="m0 58h58v-58h-58z" fill="#fff" fill-rule="evenodd"/></mask><g fill="none" fill-rule="evenodd"><path d="m5.25 33.8989223c-1.99412691-.4639058-3.5-2.4839726-3.5-4.8989223s1.50587309-4.4350165 3.5-4.8989223zm-5.25-4.8989223c0 3.858979 2.74833495 7 6.125 7h.875v-14h-.875c-3.37666505 0-6.125 3.141021-6.125 7z" fill="#9b9b9b"/><path d="m22.0551652 39.1584734c-1.6477681-.4181211-2.8723478-1.8701601-2.8723478-3.6091406h-1.9150145c0 2.7756172 2.0748985 5.0805508 4.7873623 5.5286914v3.825168h-4.7873623c-5.8068406 0-10.53194203-4.6165508-10.53194203-10.2902422v-15.9033281h.74678261c5.24684062 0 10.35014492-1.627625 14.57252172-4.6193828zm-22.0215652-18.5778984h1.91501449c0-10.3164102 8.59026091-18.70964453 19.14910141-18.70964453h.9574493v9.85444923c-4.0969275 3.3003359-9.2537971 5.113289-14.57252172 5.113289h-2.66168116v17.7742813c0 6.0675703 4.57750725 11.0975977 10.53194198 12.0021484v11.3848789h8.6171595v-9.3548789h-1.9148986v7.4839258h-4.7873623v-9.3547656h6.7022609v-46.77428126h-2.8723479c-11.61495648 0-21.0641159 9.2323086-21.0641159 20.58059766z" fill="#9b9b9b" mask="url(#a)" transform="translate(4)"/><path d="m19 26c.5520707 0 1 .4480504 1 1 0 .5520707-.4479293 1-1 1s-1-.4479293-1-1c0-.5519496.4479293-1 1-1m0 4c1.6540325 0 3-1.3459675 3-3 0-1.6539114-1.3459675-3-3-3s-3 1.3460886-3 3c0 1.6540325 1.3459675 3 3 3" fill="#9b9b9b"/><g fill="#5eb50c"><path d="m52.75 33.8989223v-9.7988133c1.9941269.4648745 3.5 2.4838514 3.5 4.8989223 0 2.4149497-1.5058731 4.4359852-3.5 4.899891m-.875-11.8989223h-.875v14h.875c3.3766651 0 6.125-3.141021 6.125-7s-2.7483349-7-6.125-7"/><path d="m30 18.8749858h16.2000109v15.9376064c0 5.6859206-4.441448 10.312422-9.8999401 10.312422h-6.3000708v1.8749858h6.3000708c6.4511235 0 11.6999292-5.4674977 11.6999292-12.1874078v-17.8125922h-18z"/><path d="m36.3000708 0h-6.3000708v1.87498581h1.7999891v3.74997162h-1.7999891v1.87498581h3.6000872v-5.62495743h1.7999891v7.50005676h-5.4000763v1.87498583h7.2000654v-9.32724839c5.0381385.47533093 8.9999455 4.89476194 8.9999455 10.26474129v2.8124787h1.7999891v-2.8124787c0-6.72002363-5.2486967-12.1875213-11.6999292-12.1875213"/><path d="m51 2c.5520707 0 1 .44805038 1 1s-.4479293 1-1 1-1-.44805038-1-1 .4479293-1 1-1zm-1 8h2v-4.18394284c1.1610559-.41402277 2-1.51404699 2-2.81605716 0-1.65403245-1.3459675-3-3-3s-3 1.34596755-3 3c0 1.30201017.8389441 2.40203439 2 2.81605716z"/><path d="m33.6666297 39.2500265h1.8333148v-3.499947h-1.8333148zm3.6667406-3.499947c1.0110094 0 1.8333149.7848179 1.8333149 1.7498675 0 .9652615-.8223055 1.7500795-1.8333149 1.7500795zm3.6666297 1.7498675c0-1.9302051-1.6444998-3.499947-3.6666297-3.499947h-7.3333703v1.7500795h1.8333148v3.499947h-1.8333148v1.7499735h7.3333703c2.0221299 0 3.6666297-1.5697419 3.6666297-3.500053z" mask="url(#b)"/><path d="m36.9999395 27.4139451 1.2850413 1.2849203c-.39101.1880577-.8230707.3010377-1.2850413.3010377-.4619707 0-.8940314-.11298-1.2849203-.3010377zm-2.699047-.1289643c-.1879367-.39101-.3009167-.8230707-.3009167-1.2850413 0-.4619707.11298-.8940314.3009167-1.2850414l1.2850413 1.2850414zm2.699047-4.285005c.4619706 0 .8940313.11298 1.2850413.3010378l-1.2850413 1.2849202-1.2849203-1.2849202c.3908889-.1880578.8229496-.3010378 1.2849203-.3010378zm2.6990469 1.7149223c.1879367.39101.3009167.8230707.3009167 1.2850414 0 .4619706-.11298.8940313-.3009167 1.2850413l-1.2850413-1.2850413zm2.3010136 1.2850414c0-2.7569296-2.2430099-4.9999395-5.0000605-4.9999395-2.7570507 0-4.9999395 2.2430099-4.9999395 4.9999395 0 2.7569295 2.2428888 5.0000605 4.9999395 5.0000605 2.7570506 0 5.0000605-2.243131 5.0000605-5.0000605z" mask="url(#b)"/><path d="m31 15h2v-2h-2z" mask="url(#b)"/><path d="m35 15h2v-2h-2z" mask="url(#b)"/><path d="m41 15h2v-2h-2z" mask="url(#b)"/><path d="m37.4666064 48h-1.8666516v3.9999516h-5.5999548v2.0000968h12.1333484v1.9998547h-12.1333484v2.0000969h14v-6.0000484h-6.5333936z" mask="url(#b)"/><path d="m50 21h2v-10h-2z" mask="url(#b)"/></g></g></svg>

<?xml version="1.0" encoding="UTF-8"?>
<svg width="58px" height="58px" viewBox="0 0 58 58" version="1.1" xmlns="http://www.w3.org/2000/svg" xmlns:xlink="http://www.w3.org/1999/xlink">
    <!-- Generator: Sketch 52.1 (67048) - http://www.bohemiancoding.com/sketch -->
    <title>iconAi</title>
    <desc>Created with Sketch.</desc>
    <defs>
        <polygon id="path-1" points="0.0336 0 23.9700638 0 23.9700638 57.9999773 0.0336 57.9999773"></polygon>
        <polygon id="path-3" points="0 58 58 58 58 0 0 0"></polygon>
    </defs>
    <g id="Page-1" stroke="none" stroke-width="1" fill="none" fill-rule="evenodd">
        <g id="Hamon_Home" transform="translate(-241.000000, -995.000000)">
            <g id="iconAi" transform="translate(241.000000, 995.000000)">
                <path d="M5.25,33.8989223 C3.25587309,33.4350165 1.75,31.4149497 1.75,29 C1.75,26.5850503 3.25587309,24.5649835 5.25,24.1010777 L5.25,33.8989223 Z M0,29 C0,32.858979 2.74833495,36 6.125,36 L7,36 L7,22 L6.125,22 C2.74833495,22 0,25.141021 0,29 Z" id="Fill-1" fill="#9B9B9B"></path>
                <g id="Group-5" transform="translate(4.000000, 0.000000)">
                    <mask id="mask-2" fill="white">
                        <use xlink:href="#path-1"></use>
                    </mask>
                    <g id="Clip-4"></g>
                    <path d="M22.0551652,39.1584734 C20.4073971,38.7403523 19.1828174,37.2883133 19.1828174,35.5493328 L17.2678029,35.5493328 C17.2678029,38.32495 19.3427014,40.6298836 22.0551652,41.0780242 L22.0551652,44.9031922 L17.2678029,44.9031922 C11.4609623,44.9031922 6.73586087,40.2866414 6.73586087,34.61295 L6.73586087,18.7096219 L7.48264348,18.7096219 C12.7294841,18.7096219 17.8327884,17.0819969 22.0551652,14.0902391 L22.0551652,39.1584734 Z M0.0336,20.580575 L1.94861449,20.580575 C1.94861449,10.2641648 10.5388754,1.87093047 21.0977159,1.87093047 L22.0551652,1.87093047 L22.0551652,11.7253797 C17.9582377,15.0257156 12.8013681,16.8386687 7.48264348,16.8386687 L4.82096232,16.8386687 L4.82096232,34.61295 C4.82096232,40.6805203 9.39846957,45.7105477 15.3529043,46.6150984 L15.3529043,57.9999773 L23.9700638,57.9999773 L23.9700638,48.6450984 L22.0551652,48.6450984 L22.0551652,56.1290242 L17.2678029,56.1290242 L17.2678029,46.7742586 L23.9700638,46.7742586 L23.9700638,-2.265625e-05 L21.0977159,-2.265625e-05 C9.48275942,-2.265625e-05 0.0336,9.23228594 0.0336,20.580575 Z" id="Fill-3" fill="#9B9B9B" mask="url(#mask-2)"></path>
                </g>
                <path d="M19,26 C19.5520707,26 20,26.4480504 20,27 C20,27.5520707 19.5520707,28 19,28 C18.4479293,28 18,27.5520707 18,27 C18,26.4480504 18.4479293,26 19,26 M19,30 C20.6540325,30 22,28.6540325 22,27 C22,25.3460886 20.6540325,24 19,24 C17.3459675,24 16,25.3460886 16,27 C16,28.6540325 17.3459675,30 19,30" id="Fill-6" fill="#9B9B9B"></path>
                <path d="M52.75,33.8989223 L52.75,24.100109 C54.7441269,24.5649835 56.25,26.5839604 56.25,28.9990313 C56.25,31.413981 54.7441269,33.4350165 52.75,33.8989223 M51.875,22 L51,22 L51,36 L51.875,36 C55.2516651,36 58,32.858979 58,29 C58,25.141021 55.2516651,22 51.875,22" id="Fill-8" fill="#5EB50C"></path>
                <path d="M30,18.8749858 L46.2000109,18.8749858 L46.2000109,34.8125922 C46.2000109,40.4985128 41.7585629,45.1250142 36.3000708,45.1250142 L30,45.1250142 L30,47 L36.3000708,47 C42.7511943,47 48,41.5325023 48,34.8125922 L48,17 L30,17 L30,18.8749858 Z" id="Fill-10" fill="#5EB50C"></path>
                <path d="M36.3000708,0 L30,0 L30,1.87498581 L31.7999891,1.87498581 L31.7999891,5.62495743 L30,5.62495743 L30,7.49994324 L33.6000872,7.49994324 L33.6000872,1.87498581 L35.4000763,1.87498581 L35.4000763,9.37504257 L30,9.37504257 L30,11.2500284 L37.2000654,11.2500284 L37.2000654,1.92278001 C42.2382039,2.39811094 46.2000109,6.81754195 46.2000109,12.1875213 L46.2000109,15 L48,15 L48,12.1875213 C48,5.46749767 42.7513033,0 36.3000708,0" id="Fill-12" fill="#5EB50C"></path>
                <path d="M51,2 C51.5520707,2 52,2.44805038 52,3 C52,3.55194962 51.5520707,4 51,4 C50.4479293,4 50,3.55194962 50,3 C50,2.44805038 50.4479293,2 51,2 Z M50,10 L52,10 L52,5.81605716 C53.1610559,5.40203439 54,4.30201017 54,3 C54,1.34596755 52.6540325,0 51,0 C49.3459675,0 48,1.34596755 48,3 C48,4.30201017 48.8389441,5.40203439 50,5.81605716 L50,10 Z" id="Fill-14" fill="#5EB50C"></path>
                <mask id="mask-4" fill="white">
                    <use xlink:href="#path-3"></use>
                </mask>
                <g id="Clip-17"></g>
                <path d="M33.6666297,39.2500265 L35.4999445,39.2500265 L35.4999445,35.7500795 L33.6666297,35.7500795 L33.6666297,39.2500265 Z M37.3333703,35.7500795 C38.3443797,35.7500795 39.1666852,36.5348974 39.1666852,37.499947 C39.1666852,38.4652085 38.3443797,39.2500265 37.3333703,39.2500265 L37.3333703,35.7500795 Z M41,37.499947 C41,35.5697419 39.3555002,34 37.3333703,34 L30,34 L30,35.7500795 L31.8333148,35.7500795 L31.8333148,39.2500265 L30,39.2500265 L30,41 L37.3333703,41 C39.3555002,41 41,39.4302581 41,37.499947 Z" id="Fill-16" fill="#5EB50C" mask="url(#mask-4)"></path>
                <path d="M36.9999395,27.4139451 L38.2849808,28.6988654 C37.8939708,28.8869231 37.4619101,28.9999031 36.9999395,28.9999031 C36.5379688,28.9999031 36.1059081,28.8869231 35.7150192,28.6988654 L36.9999395,27.4139451 Z M34.3008925,27.2849808 C34.1129558,26.8939708 33.9999758,26.4619101 33.9999758,25.9999395 C33.9999758,25.5379688 34.1129558,25.1059081 34.3008925,24.7148981 L35.5859338,25.9999395 L34.3008925,27.2849808 Z M36.9999395,22.9999758 C37.4619101,22.9999758 37.8939708,23.1129558 38.2849808,23.3010136 L36.9999395,24.5859338 L35.7150192,23.3010136 C36.1059081,23.1129558 36.5379688,22.9999758 36.9999395,22.9999758 Z M39.6989864,24.7148981 C39.8869231,25.1059081 39.9999031,25.5379688 39.9999031,25.9999395 C39.9999031,26.4619101 39.8869231,26.8939708 39.6989864,27.2849808 L38.4139451,25.9999395 L39.6989864,24.7148981 Z M42,25.9999395 C42,23.2430099 39.7569901,21 36.9999395,21 C34.2428888,21 32,23.2430099 32,25.9999395 C32,28.756869 34.2428888,31 36.9999395,31 C39.7569901,31 42,28.756869 42,25.9999395 Z" id="Fill-18" fill="#5EB50C" mask="url(#mask-4)"></path>
                <polygon id="Fill-19" fill="#5EB50C" mask="url(#mask-4)" points="31 15 33 15 33 13 31 13"></polygon>
                <polygon id="Fill-20" fill="#5EB50C" mask="url(#mask-4)" points="35 15 37 15 37 13 35 13"></polygon>
                <polygon id="Fill-21" fill="#5EB50C" mask="url(#mask-4)" points="41 15 43 15 43 13 41 13"></polygon>
                <polygon id="Fill-22" fill="#5EB50C" mask="url(#mask-4)" points="37.4666064 48 35.5999548 48 35.5999548 51.9999516 30 51.9999516 30 54.0000484 42.1333484 54.0000484 42.1333484 55.9999031 30 55.9999031 30 58 44 58 44 51.9999516 37.4666064 51.9999516"></polygon>
                <polygon id="Fill-23" fill="#5EB50C" mask="url(#mask-4)" points="50 21 52 21 52 11 50 11"></polygon>
            </g>
        </g>
    </g>
</svg>
